X: 472
T: Tom Sullivan's (Polka)
B: good tune book
B: tunes
M:2/4
R: polka
Q: 1/4=100
K:Dmixolydian
V:1 
|:"D"F>G AB|"C" cA AG|"D" Ad d^c|"D" dz "A"d>e|
 "D"fd ed|"A" cA A>B|"C"cA GE|"D" D2D2:|
 |:"D"fd ed|"A" cA A2|"D" fd ef|"G" g2 "A"a>g|"D"fd ed|"A" cA A>B|"C" cA GE|"D" D2D2:|
% abcbook-tune_id 63ce6af3243423125f13c4a7
% abcbook-tune_composer_id 
% abcbook-link-0 https://www.youtube.com/watch?v=KQwlXfvDR8Y
% abcbook-boost 0
% abcbook-difficulty 0
% abcbook-tags good tune book
% abcbook-tablature 
% abcbook-transpose 
% abcbook-tuning 
% abcbook-lastupdated 1675481825881
% abcbook-soundfonts 
% abcbook-repeats 1


